!!!COM: Schubert, Franz Peter
!!!CDT: 1797-1828
!!!OTL: Horch, horch, die Lerch
!!!SCT: DV 889
!!!YOR: Franz Schubert: Selected songs
!!!PPE: Max Friedlaender
!!!PSR: C.F. Peters 
!!!PSP: Frankfurt, London, New York
!!!PSD: n.d.
!!!PPG: pp.22-23
!!!ODT: 1826///
!!!ONB: Leading and trailing bars of rest have been deleted.
**kern
*M6/8
*MM[Allegretto]
*C:
*k[]
=1
4.r
4r
8ee
=2
4ff
8b
4b
8b
=3
4dd
8cc
4cc
8g
=4
4g
8g
(8.g
16a)
8g
=5
(4.g
8cc)
8r
8ee
=6
4ff
8b
4b
8b
=7
4cc
8ee
4g
8g
=8
4g
8g
(8.g
16a)
8g
=9
(4.g
8ee)
8r
8ee
=10
(8gg
8ee)
8cc
(8ee
8cc)
8a
=11
4g
8r
4r
8g
=12
4g
8g
(8gM
8f)
8g
=13
4b-
8a-
(8.a-
16b-)
8cc
=14
4dd-
8dd-
(8.dd-
16ee-)
8dd-
=15
4cc
8r
4r
8cc
=16
4ee-
8ee-
(8ee-
8ddn)
8cc
=17
4gg
8een
4cc
8a
=18
(8.g
16a)
8g
(8.ff
16ee)
8dd
=19
4ee
8r
4r
8cc
=20
4ee-
8ee-
(8ee-
8dd)
8cc
=21
4gg
8een
4cc
8a
=22
(8.g
16a)
8g
(8.ff
16ee)
8dd
=23
[4.gg
4gg]
8g
=24
[4.ff
4ff]
8g
=25
[4.ee
4ee]
8ee
=26
(8.ff
16ee)
8dd
(8.dd
16cc)
8b
=27
[4.gg
4gg]
8g
=28
[4.ff
4ff]
8g
=29
[4.ee
4ee]
8ee
=30
(8a
8ff)
8ee
(8.dd
16ee)
8dd
=31
4cc
8r
4r
8ee
=32
4ff
8b
4b
8b
=33
4dd
8cc
4cc
8g
=34
4g
8g
(8.g
16a)
8g
=35
(4.g
8cc)
8r
8ee
=36
4ff
8b
4b
8b
=37
4cc
8ee
4g
8g
=38
4g
8g
(8.g
16a)
8g
=39
(4.g
8ee)
8r
8ee
=40
(8gg
8ee)
8cc
(8ee
8cc)
8a
=41
4g
8r
4r
8g
=42
4g
8g
(8gM
8f)
8g
=43
4b-
8a-
(8.a-
16b-)
8cc
=44
4dd-
8dd-
(8.dd-
16ee-)
8dd-
=45
4cc
8r
4r
8cc
=46
4ee-
8ee-
(8ee-
8ddn)
8cc
=47
4gg
8een
4cc
8a
=48
(8.g
16a)
8g
(8.ff
16ee)
8dd
=49
4ee
8r
4r
8cc
=50
4ee-
8ee-
(8ee-
8dd)
8cc
=51
4gg
8een
4cc
8a
=52
(8.g
16a)
8g
(8.ff
16ee)
8dd
=53
[4.gg
4gg]
8g
=54
[4.ff
4ff]
8g
=55
[4.ee
4ee]
8ee
=56
(8.ff
16ee)
8dd
(8.dd
16cc)
8b
=57
[4.gg
4gg]
8g
=58
[4.ff
4ff]
8g
=59
[4.ee
4ee]
8ee
=60
(8a
8ff)
8ee
(8.dd
16ee)
8dd
=61
4cc
8r
4r
==
*-
!!!ENC: David Huron
!!!EMD: Paul von Hippel updated this file in the following ways (1998/9/2,21-22/):
!!!EMD:  (1) changed the representation of slurs from curly braces to parentheses 
!!!EMD:  (2) changed freeform comments into reference records and tandem interpretations
!!!EMD:  (3) changed final barline from quadruple (====) to double (==)
!!!EMD:  (4) added key signatures, key designations, and tempi
!!!EEV: Version 2.0
